etc/skel/.local/share/plasma/desktoptheme/Layan-light/icons/plasmavault.svg

<?xml version="1.0" encoding="UTF-8" standalone="no"?>
<svg
   id="svg4168"
   width="55"
   height="32"
   inkscape:version="1.3.2 (091e20ef0f, 2023-11-25)"
   sodipodi:docname="plasmavault.svg"
   version="1.1"
   viewBox="0 0 55 32"
   xmlns:inkscape="http://www.inkscape.org/namespaces/inkscape"
   xmlns:sodipodi="http://sodipodi.sourceforge.net/DTD/sodipodi-0.dtd"
   xmlns="http://www.w3.org/2000/svg"
   xmlns:svg="http://www.w3.org/2000/svg">
  <sodipodi:namedview
     id="namedview11"
     bordercolor="#666666"
     borderopacity="1"
     gridtolerance="10"
     guidetolerance="10"
     inkscape:bbox-nodes="true"
     inkscape:current-layer="svg4168"
     inkscape:cx="22.566163"
     inkscape:cy="20.081815"
     inkscape:pageopacity="0"
     inkscape:pageshadow="2"
     inkscape:snap-bbox="true"
     inkscape:snap-bbox-edge-midpoints="true"
     inkscape:window-height="1012"
     inkscape:window-maximized="1"
     inkscape:window-width="1920"
     inkscape:window-x="0"
     inkscape:window-y="32"
     inkscape:zoom="14.490722"
     objecttolerance="10"
     pagecolor="#ffffff"
     showgrid="true"
     inkscape:showpageshadow="2"
     inkscape:pagecheckerboard="0"
     inkscape:deskcolor="#d1d1d1">
    <inkscape:grid
       id="grid838"
       type="xygrid"
       originx="0"
       originy="0"
       spacingy="1"
       spacingx="1"
       units="px"
       visible="true" />
  </sodipodi:namedview>
  <defs
     id="defs4157">
    <style
       id="current-color-scheme"
       type="text/css">.ColorScheme-Text { color:#363636; } .ColorScheme-Highlight { color:#5294e2; } .ColorScheme-ButtonBackground { color:#363636; }</style>
  </defs>
  <g
     id="22-22-plasmavault"
     transform="translate(0,10)"
     enable-background="new">
    <rect
       id="rect4192-3-3"
       x="-4.2691999e-11"
       y="-2.6673001e-11"
       width="22"
       height="22"
       opacity="0" />
    <rect
       id="rect5737-9-6"
       transform="rotate(-90)"
       x="-18.997"
       y="2.9976001"
       width="16"
       height="16"
       color="#bebebe"
       fill="none" />
    <path
       id="rect858"
       d="M 11,2 C 8.23,2 6,4.23 6,7 v 3 H 8 V 7 c 0,-1.662 1.338,-3 3,-3 1.662,0 3,1.338 3,3 v 3 h 2 V 7 C 16,4.23 13.77,2 11,2 Z"
       class="ColorScheme-Text"
       fill="currentColor"
       style="opacity:0.5" />
    <path
       id="rect836"
       d="M 5 8 C 3.8920011 8 3 8.8920011 3 10 L 3 17 C 3 18.107999 3.8920011 19 5 19 L 17 19 C 18.107999 19 19 18.107999 19 17 L 19 10 C 19 8.8920011 18.107999 8 17 8 L 7 8 L 5 8 z M 11 10 A 2.0032 2.0032 0 0 1 11.158203 10.007812 A 2.0032 2.0032 0 0 1 11.292969 10.023438 A 2.0032 2.0032 0 0 1 11.361328 10.033203 A 2.0032 2.0032 0 0 1 11.460938 10.056641 A 2.0032 2.0032 0 0 1 11.578125 10.085938 A 2.0032 2.0032 0 0 1 11.634766 10.105469 A 2.0032 2.0032 0 0 1 11.753906 10.148438 A 2.0032 2.0032 0 0 1 11.857422 10.195312 A 2.0032 2.0032 0 0 1 11.923828 10.226562 A 2.0032 2.0032 0 0 1 12.039062 10.292969 A 2.0032 2.0032 0 0 1 12.107422 10.335938 A 2.0032 2.0032 0 0 1 12.175781 10.384766 A 2.0032 2.0032 0 0 1 12.271484 10.455078 A 2.0032 2.0032 0 0 1 12.341797 10.517578 A 2.0032 2.0032 0 0 1 12.416016 10.587891 A 2.0032 2.0032 0 0 1 12.486328 10.662109 A 2.0032 2.0032 0 0 1 12.548828 10.732422 A 2.0032 2.0032 0 0 1 12.619141 10.828125 A 2.0032 2.0032 0 0 1 12.667969 10.896484 A 2.0032 2.0032 0 0 1 12.710938 10.964844 A 2.0032 2.0032 0 0 1 12.777344 11.080078 A 2.0032 2.0032 0 0 1 12.808594 11.146484 A 2.0032 2.0032 0 0 1 12.855469 11.25 A 2.0032 2.0032 0 0 1 12.898438 11.369141 A 2.0032 2.0032 0 0 1 12.917969 11.425781 A 2.0032 2.0032 0 0 1 12.947266 11.542969 A 2.0032 2.0032 0 0 1 12.970703 11.642578 A 2.0032 2.0032 0 0 1 12.980469 11.710938 A 2.0032 2.0032 0 0 1 12.996094 11.845703 A 2.0032 2.0032 0 0 1 13.003906 12.003906 A 2.0032 2.0032 0 0 1 12.996094 12.152344 A 2.0032 2.0032 0 0 1 12.988281 12.246094 A 2.0032 2.0032 0 0 1 12.970703 12.353516 A 2.0032 2.0032 0 0 1 12.947266 12.464844 A 2.0032 2.0032 0 0 1 12.941406 12.492188 A 2.0032 2.0032 0 0 1 12.933594 12.513672 A 2.0032 2.0032 0 0 1 12.890625 12.658203 A 2.0032 2.0032 0 0 1 12.863281 12.732422 A 2.0032 2.0032 0 0 1 12.830078 12.810547 A 2.0032 2.0032 0 0 1 12.773438 12.929688 A 2.0032 2.0032 0 0 1 12.738281 12.994141 A 2.0032 2.0032 0 0 1 12.675781 13.095703 A 2.0032 2.0032 0 0 1 12.626953 13.167969 A 2.0032 2.0032 0 0 1 12.560547 13.255859 A 2.0032 2.0032 0 0 1 12.5 13.328125 A 2.0032 2.0032 0 0 1 12.435547 13.396484 A 2.0032 2.0032 0 0 1 12.355469 13.472656 A 2.0032 2.0032 0 0 1 12.287109 13.533203 A 2.0032 2.0032 0 0 1 12.193359 13.607422 A 2.0032 2.0032 0 0 1 12.134766 13.648438 A 2.0032 2.0032 0 0 1 12 13.736328 L 12 16 C 12 16.553999 11.553999 17 11 17 C 10.8615 17 10.729085 16.972345 10.609375 16.921875 C 10.250215 16.770475 10 16.4155 10 16 L 10 13.738281 A 2.0032 2.0032 0 0 1 9.8535156 13.642578 A 2.0032 2.0032 0 0 1 9.8085938 13.609375 A 2.0032 2.0032 0 0 1 9.7207031 13.541016 A 2.0032 2.0032 0 0 1 9.6269531 13.458984 A 2.0032 2.0032 0 0 1 9.5820312 13.414062 A 2.0032 2.0032 0 0 1 9.4980469 13.324219 A 2.0032 2.0032 0 0 1 9.4433594 13.261719 A 2.0032 2.0032 0 0 1 9.3613281 13.154297 A 2.0032 2.0032 0 0 1 9.3339844 13.113281 A 2.0032 2.0032 0 0 1 9.2597656 12.994141 A 2.0032 2.0032 0 0 1 9.2246094 12.927734 A 2.0032 2.0032 0 0 1 9.1738281 12.824219 A 2.0032 2.0032 0 0 1 9.1308594 12.71875 A 2.0032 2.0032 0 0 1 9.109375 12.660156 A 2.0032 2.0032 0 0 1 9.0683594 12.525391 A 2.0032 2.0032 0 0 1 9.0507812 12.455078 A 2.0032 2.0032 0 0 1 9.03125 12.361328 A 2.0032 2.0032 0 0 1 9.0117188 12.242188 A 2.0032 2.0032 0 0 1 9.0039062 12.15625 A 2.0032 2.0032 0 0 1 8.9960938 12.003906 A 2.0032 2.0032 0 0 1 9.0039062 11.845703 A 2.0032 2.0032 0 0 1 9.0195312 11.710938 A 2.0032 2.0032 0 0 1 9.0292969 11.642578 A 2.0032 2.0032 0 0 1 9.0527344 11.542969 A 2.0032 2.0032 0 0 1 9.0820312 11.425781 A 2.0032 2.0032 0 0 1 9.1015625 11.369141 A 2.0032 2.0032 0 0 1 9.1445312 11.25 A 2.0032 2.0032 0 0 1 9.1914062 11.146484 A 2.0032 2.0032 0 0 1 9.2226562 11.080078 A 2.0032 2.0032 0 0 1 9.2890625 10.964844 A 2.0032 2.0032 0 0 1 9.3320312 10.896484 A 2.0032 2.0032 0 0 1 9.3808594 10.828125 A 2.0032 2.0032 0 0 1 9.4511719 10.732422 A 2.0032 2.0032 0 0 1 9.5136719 10.662109 A 2.0032 2.0032 0 0 1 9.5839844 10.587891 A 2.0032 2.0032 0 0 1 9.6582031 10.517578 A 2.0032 2.0032 0 0 1 9.7285156 10.455078 A 2.0032 2.0032 0 0 1 9.8242188 10.384766 A 2.0032 2.0032 0 0 1 9.8925781 10.335938 A 2.0032 2.0032 0 0 1 9.9609375 10.292969 A 2.0032 2.0032 0 0 1 10.076172 10.226562 A 2.0032 2.0032 0 0 1 10.142578 10.195312 A 2.0032 2.0032 0 0 1 10.246094 10.148438 A 2.0032 2.0032 0 0 1 10.365234 10.105469 A 2.0032 2.0032 0 0 1 10.421875 10.085938 A 2.0032 2.0032 0 0 1 10.539062 10.056641 A 2.0032 2.0032 0 0 1 10.638672 10.033203 A 2.0032 2.0032 0 0 1 10.707031 10.023438 A 2.0032 2.0032 0 0 1 10.841797 10.007812 A 2.0032 2.0032 0 0 1 11 10 z M 11 11 A 1.0032001 1.0032001 0 0 0 9.9960938 12.003906 A 1.0032001 1.0032001 0 0 0 11 13.005859 A 1.0032001 1.0032001 0 0 0 12.003906 12.003906 A 1.0032001 1.0032001 0 0 0 11 11 z "
       class="ColorScheme-Text"
       fill="currentColor" />
  </g>
  <g
     id="plasmavault">
    <rect
       id="rect838"
       transform="rotate(-90)"
       x="-32"
       y="23"
       width="32"
       height="32"
       color="#bebebe"
       fill="none" />
    <path
       id="rect840"
       d="M 30 14 C 28.338002 14 27 15.338002 27 17 L 27 27 C 27 28.661998 28.338002 30 30 30 L 48 30 C 49.661998 30 51 28.661998 51 27 L 51 17 C 51 15.338002 49.661998 14 48 14 L 30 14 z M 39.085938 18 A 2 2 0 0 1 41.085938 20 A 2 2 0 0 1 40 21.779297 L 40 25 C 40 25.553999 39.553999 26 39 26 C 38.446001 26 38 25.553999 38 25 L 38 21.677734 A 2 2 0 0 1 37.085938 20 A 2 2 0 0 1 39.085938 18 z M 39.085938 19 A 1 1 0 0 0 38.085938 20 A 1 1 0 0 0 39.085938 21 A 1 1 0 0 0 40.085938 20 A 1 1 0 0 0 39.085938 19 z "
       class="ColorScheme-Text"
       fill="currentColor" />
    <path
       id="rect842"
       d="m 39,2 c -4.432,0 -8,3.568 -8,8 v 4 h 2 v -4 c 0,-3.324 2.676,-6 6,-6 3.324,0 6,2.676 6,6 v 4 h 2 V 10 C 47,5.568 43.432,2 39,2 Z"
       class="ColorScheme-Text"
       fill="currentColor"
       style="opacity:0.5" />
  </g>
</svg>

<svg id="svg4168" width="55" height="32" inkscape:version="0.92.4 (5da689c313, 2019-01-14)" sodipodi:docname="plasmavault.svg" version="1.1" viewBox="0 0 55 32" xmlns="http://www.w3.org/2000/svg" xmlns:inkscape="http://www.inkscape.org/namespaces/inkscape" xmlns:sodipodi="http://sodipodi.sourceforge.net/DTD/sodipodi-0.dtd"><sodipodi:namedview id="namedview11" bordercolor="#666666" borderopacity="1" gridtolerance="10" guidetolerance="10" inkscape:bbox-nodes="true" inkscape:current-layer="svg4168" inkscape:cx="9.7550038" inkscape:cy="-5.364781" inkscape:pageopacity="0" inkscape:pageshadow="2" inkscape:snap-bbox="true" inkscape:snap-bbox-edge-midpoints="true" inkscape:window-height="710" inkscape:window-maximized="1" inkscape:window-width="1366" inkscape:window-x="0" inkscape:window-y="32" inkscape:zoom="3.6226806" objecttolerance="10" pagecolor="#323232" showgrid="true"><inkscape:grid id="grid838" type="xygrid"/></sodipodi:namedview><defs id="defs4157"><style id="current-color-scheme" type="text/css">.ColorScheme-Text { color:#363636; } .ColorScheme-Highlight { color:#5294e2; } .ColorScheme-ButtonBackground { color:#363636; }</style></defs><g id="22-22-plasmavault" transform="translate(.71133 6.556)" enable-background="new"><path id="rect836" d="m5 8c-1.108 0-2 0.892-2 2v7c0 1.108 0.892 2 2 2h12c1.108 0 2-0.892 2-2v-7c0-1.108-0.892-2-2-2h-10zm6 2a2.0032 2.0032 0 0 1 0.1582 0.0078 2.0032 2.0032 0 0 1 0.13477 0.01563 2.0032 2.0032 0 0 1 0.06836 0.0098 2.0032 2.0032 0 0 1 0.09961 0.02344 2.0032 2.0032 0 0 1 0.11719 0.0293 2.0032 2.0032 0 0 1 0.05664 0.01953 2.0032 2.0032 0 0 1 0.11914 0.04297 2.0032 2.0032 0 0 1 0.10352 0.04687 2.0032 2.0032 0 0 1 0.06641 0.03125 2.0032 2.0032 0 0 1 0.11523 0.06641 2.0032 2.0032 0 0 1 0.06836 0.04297 2.0032 2.0032 0 0 1 0.06836 0.04883 2.0032 2.0032 0 0 1 0.0957 0.07031 2.0032 2.0032 0 0 1 0.07031 0.0625 2.0032 2.0032 0 0 1 0.07422 0.07031 2.0032 2.0032 0 0 1 0.07031 0.07422 2.0032 2.0032 0 0 1 0.0625 0.07031 2.0032 2.0032 0 0 1 0.07031 0.0957 2.0032 2.0032 0 0 1 0.04883 0.06836 2.0032 2.0032 0 0 1 0.04297 0.06836 2.0032 2.0032 0 0 1 0.06641 0.11523 2.0032 2.0032 0 0 1 0.03125 0.06641 2.0032 2.0032 0 0 1 0.04687 0.10352 2.0032 2.0032 0 0 1 0.04297 0.11914 2.0032 2.0032 0 0 1 0.01953 0.05664 2.0032 2.0032 0 0 1 0.0293 0.11719 2.0032 2.0032 0 0 1 0.02344 0.09961 2.0032 2.0032 0 0 1 0.0098 0.06836 2.0032 2.0032 0 0 1 0.01563 0.13476 2.0032 2.0032 0 0 1 0.0078 0.1582 2.0032 2.0032 0 0 1-0.0078 0.14844 2.0032 2.0032 0 0 1-0.0078 0.09375 2.0032 2.0032 0 0 1-0.01758 0.10742 2.0032 2.0032 0 0 1-0.02344 0.11133 2.0032 2.0032 0 0 1-0.0059 0.02734 2.0032 2.0032 0 0 1-0.0078 0.02148 2.0032 2.0032 0 0 1-0.04297 0.14453 2.0032 2.0032 0 0 1-0.02734 0.07422 2.0032 2.0032 0 0 1-0.0332 0.07813 2.0032 2.0032 0 0 1-0.05664 0.11914 2.0032 2.0032 0 0 1-0.03516 0.06445 2.0032 2.0032 0 0 1-0.0625 0.10156 2.0032 2.0032 0 0 1-0.04883 0.07227 2.0032 2.0032 0 0 1-0.06641 0.08789 2.0032 2.0032 0 0 1-0.06055 0.07227 2.0032 2.0032 0 0 1-0.06445 0.06836 2.0032 2.0032 0 0 1-0.08008 0.07617 2.0032 2.0032 0 0 1-0.06836 0.06055 2.0032 2.0032 0 0 1-0.09375 0.07422 2.0032 2.0032 0 0 1-0.05859 0.04102 2.0032 2.0032 0 0 1-0.13479 0.087849v2.2637c0 0.554-0.446 1-1 1-0.1385 0-0.27091-0.02766-0.39062-0.07813-0.35916-0.1514-0.60938-0.50637-0.60938-0.92187v-2.2617a2.0032 2.0032 0 0 1-0.14648-0.0957 2.0032 2.0032 0 0 1-0.044922-0.0332 2.0032 2.0032 0 0 1-0.087891-0.06836 2.0032 2.0032 0 0 1-0.09375-0.08203 2.0032 2.0032 0 0 1-0.044922-0.04492 2.0032 2.0032 0 0 1-0.083984-0.08984 2.0032 2.0032 0 0 1-0.054687-0.0625 2.0032 2.0032 0 0 1-0.082031-0.10742 2.0032 2.0032 0 0 1-0.027344-0.04102 2.0032 2.0032 0 0 1-0.074219-0.11914 2.0032 2.0032 0 0 1-0.035156-0.06641 2.0032 2.0032 0 0 1-0.050781-0.10352 2.0032 2.0032 0 0 1-0.042969-0.10547 2.0032 2.0032 0 0 1-0.021484-0.05859 2.0032 2.0032 0 0 1-0.041016-0.13476 2.0032 2.0032 0 0 1-0.017578-0.07031 2.0032 2.0032 0 0 1-0.019531-0.09375 2.0032 2.0032 0 0 1-0.019531-0.11914 2.0032 2.0032 0 0 1-0.00781-0.08594 2.0032 2.0032 0 0 1-0.00781-0.15234 2.0032 2.0032 0 0 1 0.00781-0.1582 2.0032 2.0032 0 0 1 0.015625-0.13476 2.0032 2.0032 0 0 1 0.00977-0.06836 2.0032 2.0032 0 0 1 0.023437-0.09961 2.0032 2.0032 0 0 1 0.029297-0.11719 2.0032 2.0032 0 0 1 0.019531-0.05664 2.0032 2.0032 0 0 1 0.042969-0.11914 2.0032 2.0032 0 0 1 0.046875-0.10352 2.0032 2.0032 0 0 1 0.03125-0.06641 2.0032 2.0032 0 0 1 0.066406-0.11523 2.0032 2.0032 0 0 1 0.042969-0.06836 2.0032 2.0032 0 0 1 0.048828-0.06836 2.0032 2.0032 0 0 1 0.070312-0.0957 2.0032 2.0032 0 0 1 0.0625-0.07031 2.0032 2.0032 0 0 1 0.070312-0.07422 2.0032 2.0032 0 0 1 0.074219-0.07031 2.0032 2.0032 0 0 1 0.070312-0.0625 2.0032 2.0032 0 0 1 0.095703-0.07031 2.0032 2.0032 0 0 1 0.068359-0.04883 2.0032 2.0032 0 0 1 0.068359-0.04297 2.0032 2.0032 0 0 1 0.11523-0.06641 2.0032 2.0032 0 0 1 0.06641-0.03125 2.0032 2.0032 0 0 1 0.10352-0.04687 2.0032 2.0032 0 0 1 0.11914-0.04297 2.0032 2.0032 0 0 1 0.05664-0.01953 2.0032 2.0032 0 0 1 0.11719-0.0293 2.0032 2.0032 0 0 1 0.09961-0.02344 2.0032 2.0032 0 0 1 0.06836-0.0098 2.0032 2.0032 0 0 1 0.13477-0.01563 2.0032 2.0032 0 0 1 0.15819-0.007778z" fill="#363636" inkscape:connector-curvature="0"/><path id="path832" d="m11 10a2.0032 2.0032 0 0 0-2.0039 2.0039 2.0032 2.0032 0 0 0 1.0039 1.7344v2.2617c0 0.554 0.446 1 1 1s1-0.446 1-1v-2.2637a2.0032 2.0032 0 0 0 1.0039-1.7324 2.0032 2.0032 0 0 0-2.0039-2.0039z" fill="#363636" opacity=".35" inkscape:connector-curvature="0"/><rect id="rect4192-3-3" x="-4.2692e-11" y="-2.6673e-11" width="22" height="22" opacity="0"/><rect id="rect5737-9-6" transform="rotate(-90)" x="-18.997" y="2.9976" width="16" height="16" color="#bebebe" fill="none"/><circle id="circle843" cx="11" cy="12.003" r="1.0032" fill="#363636"/><path id="rect858" d="m11 2c-2.77 0-5 2.23-5 5v3h2v-3c0-1.662 1.338-3 3-3 1.662 0 3 1.338 3 3v3h2v-3c0-2.77-2.23-5-5-5z" fill="#363636" opacity=".75" inkscape:connector-curvature="0"/></g><g id="plasmavault"><rect id="rect838" transform="rotate(-90)" x="-32" y="23" width="32" height="32" color="#bebebe" fill="none"/><g fill="#363636"><path id="rect840" d="m30 14c-1.662 0-3 1.338-3 3v10c0 1.662 1.338 3 3 3h18c1.662 0 3-1.338 3-3v-10c0-1.662-1.338-3-3-3zm9.0859 4a2 2 0 0 1 2 2 2 2 0 0 1-1.0859 1.7793v3.2207c0 0.554-0.446 1-1 1s-1-0.446-1-1v-3.3223a2 2 0 0 1-0.91406-1.6777 2 2 0 0 1 2-2z" inkscape:connector-curvature="0"/><path id="rect842" d="m39 2c-4.432 0-8 3.568-8 8v4h2v-4c0-3.324 2.676-6 6-6s6 2.676 6 6v4h2v-4c0-4.432-3.568-8-8-8z" opacity=".75" inkscape:connector-curvature="0"/><path id="path847" d="m39.086 18a2 2 0 0 0-2 2 2 2 0 0 0 0.91406 1.6777v3.3223c0 0.554 0.446 1 1 1s1-0.446 1-1v-3.2207a2 2 0 0 0 1.0859-1.7793 2 2 0 0 0-2-2z" opacity=".35" inkscape:connector-curvature="0"/><circle id="circle851" cx="39.085" cy="20" r="1"/></g></g></svg>
